svg-color/transportr.svg

<?xml version="1.0" encoding="UTF-8" standalone="no"?>
<!-- Created with Inkscape (http://www.inkscape.org/) -->

<svg
   xmlns:dc="http://purl.org/dc/elements/1.1/"
   xmlns:cc="http://creativecommons.org/ns#"
   xmlns:rdf="http://www.w3.org/1999/02/22-rdf-syntax-ns#"
   xmlns:svg="http://www.w3.org/2000/svg"
   xmlns="http://www.w3.org/2000/svg"
   xmlns:sodipodi="http://sodipodi.sourceforge.net/DTD/sodipodi-0.dtd"
   xmlns:inkscape="http://www.inkscape.org/namespaces/inkscape"
   id="svg2"
   width="32"
   height="32"
   version="1.1"
   sodipodi:docname="transportr.round.svg"
   inkscape:version="0.92+devel unknown">
  <metadata
     id="metadata78">
    <rdf:RDF>
      <cc:Work
         rdf:about="">
        <dc:format>image/svg+xml</dc:format>
        <dc:type
           rdf:resource="http://purl.org/dc/dcmitype/StillImage" />
        <dc:title>Twelf Icon Template</dc:title>
      </cc:Work>
    </rdf:RDF>
  </metadata>
  <sodipodi:namedview
     pagecolor="#404040"
     bordercolor="#666666"
     inkscape:document-rotation="0"
     borderopacity="1"
     objecttolerance="10"
     gridtolerance="10"
     guidetolerance="10"
     inkscape:pageopacity="0"
     inkscape:pageshadow="2"
     inkscape:window-width="1366"
     inkscape:window-height="704"
     id="namedview76"
     showgrid="true"
     inkscape:snap-bbox="true"
     inkscape:snap-global="true"
     inkscape:zoom="8"
     inkscape:cx="11.609981"
     inkscape:cy="13.37033"
     inkscape:window-x="0"
     inkscape:window-y="27"
     inkscape:window-maximized="1"
     inkscape:current-layer="svg2"
     inkscape:bbox-paths="true"
     inkscape:bbox-nodes="true"
     inkscape:snap-bbox-edge-midpoints="true"
     inkscape:snap-bbox-midpoints="true"
     inkscape:snap-intersection-paths="true"
     inkscape:snap-smooth-nodes="true"
     inkscape:snap-midpoints="true">
    <inkscape:grid
       type="xygrid"
       id="grid4344" />
  </sodipodi:namedview>
  <title
     id="title3766">Twelf Icon Template</title>
  <defs
     id="defs4">
    <filter
       id="filter6206-7"
       color-interpolation-filters="sRGB">
      <feGaussianBlur
         id="feGaussianBlur6208-9"
         stdDeviation="0.658125" />
    </filter>
  </defs>
  <flowRoot
     xml:space="preserve"
     style="line-height:125%;fill:#ffffff;fill-opacity:1"
     word-spacing="0px"
     stroke-width="1px"
     letter-spacing="0px"
     font-size="3.75px"
     font-family="Roboto"
     fill="#000000"
     id="flowRoot4698"
     transform="matrix(2.0747244,0,0,2.0747244,28.030875,-11.922054)"><flowRegion
       style="fill:#ffffff;fill-opacity:1"
       id="flowRegion4700"><rect
         style="fill:#ffffff;fill-opacity:1"
         height="5.0512"
         width="4.49"
         y="11.235"
         x="10.664"
         id="rect4702" /></flowRegion><flowPara
       id="flowPara4704">your</flowPara></flowRoot>  <path
     style="fill:#f24236;fill-opacity:1;stroke:#f24236;stroke-width:0;stroke-linecap:round;stroke-linejoin:round;stroke-opacity:1;paint-order:markers fill stroke"
     d="M 3 0 C 1.338 0 0 1.338 0 3 L 0 29 C 0 30.662 1.338 32 3 32 L 29 32 C 30.662 32 32 30.662 32 29 L 32 3 C 32 1.338 30.662 0 29 0 L 3 0 z M 18.576172 8.1328125 C 20.531598 8.0945918 21.843534 8.8708527 22.974609 10.730469 C 24.096207 12.455886 26.976351 17.490982 27.480469 18.964844 C 27.988478 20.287657 27.431579 21.76395 25.869141 22.195312 C 24.277754 22.636272 21.654443 23.171202 19.777344 23.537109 C 18.283137 23.8283 17.159255 24.106026 15.154297 23.554688 C 11.223392 22.473539 6.3727704 20.786291 5.3183594 20.421875 C 4.5504833 20.156507 4.7876679 18.819134 5.5097656 18.984375 C 6.0751915 19.113776 11.817129 20.364198 12.689453 20.517578 C 13.728439 20.700301 14.41574 20.316009 14.638672 19.927734 C 14.93687 19.408361 14.875455 18.605108 14.587891 17.857422 C 14.08091 16.539237 12.700145 13.097925 12.125 11.966797 C 11.549925 10.835653 10.760144 10.436212 9.9199219 10.357422 C 8.566601 10.230488 5.5417782 10.114793 4.7246094 10.064453 C 4.2669699 10.036276 4.1249262 9.1299547 4.8007812 9.015625 C 7.8891166 8.4932184 16.978941 8.0836928 18.576172 8.1328125 z M 19.505859 9.7324219 C 19.343634 9.7254952 19.171608 9.7297622 18.988281 9.7441406 C 18.016482 9.8283461 15.331397 10.053854 14.759766 10.121094 C 14.040822 10.192994 13.510043 10.524247 13.941406 11.660156 C 14.176728 12.199531 15.607185 15.875388 15.953125 16.505859 C 16.370125 17.454846 17.104367 17.69864 18.398438 17.511719 C 19.585335 17.38139 22.530118 16.949541 23.373047 16.736328 C 24.187853 16.530262 24.492395 15.911398 24.134766 15.269531 C 23.501023 14.131479 22.74869 12.844972 21.929688 11.458984 C 21.292169 10.351837 20.641435 9.7809086 19.505859 9.7324219 z M 25.34375 18.46875 C 24.735818 18.46875 24.242188 18.960496 24.242188 19.568359 C 24.242188 20.176223 24.735938 20.669922 25.34375 20.669922 C 25.951562 20.669922 26.443359 20.176223 26.443359 19.568359 C 26.443359 18.960496 25.951682 18.46875 25.34375 18.46875 z M 18.876953 19.597656 C 18.201681 19.597656 17.654297 20.145041 17.654297 20.820312 C 17.654297 21.495584 18.201681 22.042969 18.876953 22.042969 C 19.552277 22.042969 20.099609 21.495584 20.099609 20.820312 C 20.099609 20.145041 19.552294 19.597656 18.876953 19.597656 z "
     id="rect4442" />
  <g
     id="layer3"
     display="none"
     fill="none"
     transform="translate(0,5.0499992)">
    <rect
       id="rect4387-7-8"
       transform="rotate(90)"
       x="7.3341999"
       y="-19.615999"
       width="12.282"
       height="12.282"
       display="inline"
       stroke="#000"
       stroke-width=".065984" />
    <rect
       id="rect3862"
       x="6.7726002"
       y="8.1120005"
       width="13.405"
       height="10.726"
       stroke="#5261ff"
       stroke-linecap="round"
       stroke-linejoin="round"
       stroke-width=".06524" />
    <rect
       id="rect3862-6"
       transform="rotate(90)"
       x="6.7726002"
       y="-18.837999"
       width="13.405"
       height="10.726"
       display="inline"
       stroke="#0f0"
       stroke-linecap="round"
       stroke-linejoin="round"
       stroke-width=".06524" />
  </g>
</svg>

WARNING: SVG input document uses 1 flow text elements, which won't render on browsers!
<?xml version="1.0" encoding="UTF-8"?>
<svg version="1.1" viewBox="0 0 32 32" xmlns="http://www.w3.org/2000/svg">
 <title>Twelf Icon Template</title>
 <flowRoot transform="matrix(2.075 0 0 2.075 28.03 -11.92)" fill="#ffffff" font-family="Roboto" font-size="3.75px" letter-spacing="0px" stroke-width="1px" word-spacing="0px" style="line-height:125%" xml:space="preserve"><flowRegion fill="#ffffff"><rect x="10.66" y="11.24" width="4.49" height="5.051" fill="#fff"/></flowRegion><flowPara>your</flowPara></flowRoot>
 <path d="m3 0c-1.662 0-3 1.338-3 3v26c0 1.662 1.338 3 3 3h26c1.662 0 3-1.338 3-3v-26c0-1.662-1.338-3-3-3h-26zm15.58 8.133c1.955-0.03822 3.267 0.738 4.398 2.598 1.122 1.725 4.002 6.761 4.506 8.234 0.508 1.323-0.04889 2.799-1.611 3.23-1.591 0.441-4.215 0.9759-6.092 1.342-1.494 0.2912-2.618 0.5689-4.623 0.01758-3.931-1.081-8.782-2.768-9.836-3.133-0.7679-0.2654-0.5307-1.603 0.1914-1.438 0.5654 0.1294 6.307 1.38 7.18 1.533 1.039 0.1827 1.726-0.2016 1.949-0.5898 0.2982-0.5194 0.2368-1.323-0.05078-2.07-0.507-1.318-1.888-4.759-2.463-5.891-0.5751-1.131-1.365-1.531-2.205-1.609-1.353-0.1269-4.378-0.2426-5.195-0.293-0.4576-0.02818-0.5997-0.9345 0.07617-1.049 3.088-0.5224 12.18-0.9319 13.78-0.8828zm0.9297 1.6c-0.1622-0.006927-0.3343-0.00266-0.5176 0.01172-0.9718 0.08421-3.657 0.3097-4.229 0.377-0.7189 0.0719-1.25 0.4032-0.8184 1.539 0.2353 0.5394 1.666 4.215 2.012 4.846 0.417 0.949 1.151 1.193 2.445 1.006 1.187-0.1303 4.132-0.5622 4.975-0.7754 0.8148-0.2061 1.119-0.8249 0.7617-1.467-0.6337-1.138-1.386-2.425-2.205-3.811-0.6375-1.107-1.288-1.678-2.424-1.727zm5.838 8.736c-0.6079 0-1.102 0.4917-1.102 1.1 0 0.6079 0.4938 1.102 1.102 1.102s1.1-0.4937 1.1-1.102c0-0.6079-0.4917-1.1-1.1-1.1zm-6.467 1.129c-0.6753 0-1.223 0.5474-1.223 1.223 0 0.6753 0.5474 1.223 1.223 1.223 0.6753 0 1.223-0.5474 1.223-1.223 0-0.6753-0.5473-1.223-1.223-1.223z" fill="#f24236" stroke-width="0" style="paint-order:markers fill stroke"/>
 <g transform="translate(0 5.05)" display="none" fill="none">
  <rect transform="rotate(90)" x="7.334" y="-19.62" width="12.28" height="12.28" display="inline" stroke="#000" stroke-width=".06598"/>
  <rect x="6.773" y="8.112" width="13.4" height="10.73" stroke="#5261ff" stroke-linecap="round" stroke-linejoin="round" stroke-width=".06524"/>
  <rect transform="rotate(90)" x="6.773" y="-18.84" width="13.4" height="10.73" display="inline" stroke="#0f0" stroke-linecap="round" stroke-linejoin="round" stroke-width=".06524"/>
 </g>
</svg>
